X: 26050
T: McCahill's
R: reel
M: 4/4
K: Dmixolydian
|d3 c ABcG|A/B/c G=F EC C/C/C|Add^c d2 eg|fdAG FD D2|
dBce decB|AcG=F EC CE|Ddd^c d2 eg|fdAG FD D2|
A3 B cBcG|AcG=F EC C2|Add^c d2 eg|fdAG FD D2|
dBce decB|AcG=F EC C2|Ddd^c d2 eg|fdAG FD A^c||
|:d2 fd adfd|c2 ec gcec|d2 fd adfd|eaag fddf|
a3 e A/B/c/d ef|g2 af g2 fg|afge f2 ed|eaag fdd^c:|

